X:6
%%scale 0.65
T:Vixi
C:Michael East
%%score [1 | 2 |3 |4 |5]
M:4/2
L:1/4
K:C
V:1 name="Treble I"
z8 | z8 | A A/A/ F G A3 B | c d e2 a g f e/d/ | ^c d2 c d _B A/=B/=c/d/ |
ed2 c/d/ e4 | z8 | z2 e e/e/ c d e2-| e ^f ^g a2 g a =f | e4 z2 z B|
E ^F ^G A2 G A2 | B2 e d z4 | z2 e2 c d e d-| d c B2 A ^G A f | e2 e4 A2 |
z2 d4 c2-| c2 B A ^G4 |A2 f4 e2 | d4 e2 g2-|g2 f2 e2 d2 |c2 B4 A2 |
^G2 z2 z2 z e/f/ |g d/e/ f c/d/ e3 d-|d c B2 ^c2 d2 | z2 A4 G2 | G4 F2 E2 |
z4 z2 B2 |^G2 A2 B4 |z8| g4 ^f2 e2-|e2 ^d2 e4 | z2 z e f e d c |
B2 A3 ^G/^F/ G2 |A2 f2 e2 A2-|A2 A2 _B A G A/=B/ | ^c2 d2 e4 | d2 z A>A G F/G/A/_B/ |
c>_B A/B/c/d/ e/f/ g f d |^c/d/ e d2 z A _B A-|A G/F/ G2 A A F/G/A/B/ | c3 _B A4 |
A2 d4 c2 |B3 B !mediumphrase!^c2 A2 |d2 B2 e2 ^c2 | ^f2 d4 c2 | B4 ^c d e2-|
e2 ^d2 e B c B/A/ |B3 B ^c2 d2-|d ^c/B/ c2 d A B2 | G2 c2 A2 d2 | B2 e2 ^c2 d2-|
d2 ^c2 d2 B2 | A4 z2 e2 | d e f2 e4 | e4 e2 e2 | ^f2 d2 g2 e2 | a2 ^f2 g2 g2-|
g2 ^f2 e4 | d2 B2 A4 | A2 a3 g ^f e | d4 d2 B2 | A8 |HA8 |]
V:2 name="Treble II"
A A/A/ F G A3 B | ^c d2 c d _B A2 | e2 d2 z4 | z2 a a/a/ f g a g-|g f e2 d2 c2-|
c A ^G A2 G A2 | c3 B/A/ G ^F E D | E4 z2 e e/e/ | c d e c B2 A>B |c2 B2 c A ^G2 |
A2 z2 z4 |e e/e/ c d e d2 c | B2 c2 z B E ^F |^G A2 G A d e d-| d c B2 !mediumphrase!^c2 e2-|
e f g2 f2 e2-| e2 e3 d/c/ B2 | z2 A2 B2 c2-|c2 B2 c4 | z2 g4 f2 | e2 d4 c2 |
B2 z e/f/ g d/e/ f c/d/ |e B/c/ d a g/f/e/d/ c B/A/ | ^G A2 G A4-| A4 z2 e2-|e2 d4 c2-|
c2 A2 e4-|e4 e3 d | c B A2 G4 |z2 d4 c2 | B2 B3 A ^G ^F |
E2 A2 z2 z A |e d c B/A/ B3 B | A6 e2 | f2 d4 g f | e2 d4 ^c2 |
d2 z c c>_B A A | G2 F/G/A/_B/ c2 A2 | z2 z d ^c/d/ e d c | d4 ^c2 z =c |
A/B/c/d/ e d ^c d2 c | d e f2 e4 | e4 z4 | d4 e4 | d2 A B2 B c d |
e6 A2 | B6 E2 |z8 | z2 e2 ^f2 d2 | g2 e2 a2 ^f2 | g2 g4 ^f2 |
e4 d4 |^c2 d4 c2 | d c B A ^G2 A2-|A2 ^G2 A4 |A2 B2 G2 c2 | A2 d2 B2 e2 |
^c2 d4 c2 | d2 g4 ^f2 | e4 z4 | G2 g3 ^f e d |^c2 d4 c2 | Hd8 |]
V:3 name="Tenor I" clef=alto middle=c octave=-1
z4 a a/a/ f g |a/e/ f e2 d>e f2 | e2 f d ^c2 d2 | a g/f/ e2 z4 |
z4 z2 e e/e/ |c d e c' b2 c' a-|a a2 g/f/ e d/c/ B A |B2 c A2 B c A|
z8 |z2 e e/e/ c d e2| a d'2 c' b2 a a-| a ^g a b2 a e2 | z2 z e A B c d |
e4 e b e ^f | ^g a2 g !mediumphrase!a2 c'2-|c'2 b2 a4 | ^g3 ^f e4 | f4 g4-|g4 c4 |
c6 d2 |e8 | e2 z c' b2 a2 | g2 f/g/a/b/ c'2 c d | e4 A2 f2-|f2 e2 e4 |
z8 |e4 e2 e2-|e d c2 B4 |A2 f4 e2 |d4 z4 | z4 z2 b2 |c' b a g f4 |
z4 z2 e2 | a g f e/d/ e3 e | d8 | a8 | a2 z2 z2 z f-|f/f/ e f2 c/d/ e f/g/ a |
z ^c d/e/f/g/ a2 z A | _B4 A4 |z a e/f/ g2 f e2 | d2 a2 ^g2 e2 | e4 !mediumphrase!e2 y^f2 |
d2 g2 e2 a2-|a2 ^f2 ^g2 a2-|a2 ^g2 a3 e | g2 ^f2 ^g2 a2-|a2 ^g2 a e f e/d/ |
e3 e d4 | z4 d4-|d2 e4 ^f g | a2 e2 g4-|g2 ^f2 e3 e |
f e d4 c2 | B4 A4 | z4 g4 | a4 d'2 b2 |a4 z2 e2 |
g3 ^f e2 d2 | e4 d2 d'2-|d' c' b a g2 g2-|g g ^f g/f/ e d e2 | H^f8 |]
V:4 name="Tenor II" clef=alto middle=c octave=-1
z8 | z8 | z4 A A/A/ F G | A d ^c2 d e f g | a2 a3 g/f/ e A |z8 |
e e/e/ c d e ^f ^g/e/ a-|a ^g a3 =g/f/ e2-|e d2 c/d/ e3 d | c A B2 z2 e e/e/ |
c d e4 f2 | e2 z d ^G A B c/d/| e e A/B/ c2 B z2 | z e E B c d c B-|
B A B>B A4 | Z8 | z4 z2 d2-|d2 ^c2 A2 e2 | c2 d2 z4 |
z2 c4 B2-|B2 A2 ^G4 | z2 A2 B2 c2-| c2 B2 A2 e2 | g2 ^f2 e4 |
z2 z G d c B A | ^G2 c2 B4 | e2 d3 ^c/B/ c2 | d e f2 g a _b a-|
a g f e/d/ e3 e |^f2 z =f>f e f2 | c2 z2 z c d/e/f/g/ | a A _B2 A2 z2 |
z4 z e A/B/c/d/ |c2 z g e f/g/ a>g | f e d c B2 A2-|A2 ^G2 A4 |
B4 ^c4 | d4 e4-|e4 A B c2 | B4 E4 | e4 A4 |
A6 d2 | G4 A4 | B4 e2 d2 | e2 A2 z4 | z8|
z8 | z2 B2 ^c2 A2 | d4 e4 | ^f2 d2 z g2 f | e2 d2 e4 |
z2 B2 ^c2 d2-| d ^c/B/ c2 d2 A2 | d3 c B A G ^F | E2 D2 E4 | HD8 |]
V:5 clef=bass name=Bass middle=d octave=-2
z8 | z2 a a/a/ f g a d' |^c'2 d' _b a A d g | f e/d/ a2 z4 |
z2 a a/a/ ^f g a2-| a f e4 a2 | A3 B c d e f | e2 A2 z4 |
z4 e e/e/ ^c d | e a ^g2 a f e2 | z8 | z2 z b e ^f ^g a-|
a ^g a2 z4 | z2 z e A B c d | e4 A4 | Z5 |
Z4 | z4 z2 c'2-|c'2 b2 a4 | a4 ^g3^f | e8 |
f4 g4-|g4 a4 | b3 a ^g ^f e2 | a g f e d4 | e8 |
^c2 d2 A4 | d4 G4 | A8 | d2 z2 z4 |
z8 | z8 | z4 z2 z a | f/g/a/b/ c' g a4 | d4 e4-|
e4 A4 | Z5 | A4 d4 | e4 ^f2 d2 |
g4 a4-|a2 a2 b2 g2 | a8 | d4 e4-|
e4 A4 | z8 | z4 z2 g2 | a6 A2 | B2 G2 A4 |
a3 g ^f e d c | B A G4 G2 | A8 | Hd8 |] 

